src/components/Join/Value/assets/focus.svg

<?xml version="1.0" encoding="UTF-8"?>
<svg width="26px" height="26px" viewBox="0 0 26 26" version="1.1" xmlns="http://www.w3.org/2000/svg" xmlns:xlink="http://www.w3.org/1999/xlink">
    <!-- Generator: Sketch 47.1 (45422) - http://www.bohemiancoding.com/sketch -->
    <title>Icon_Joinus_Focus-driven_work@1x</title>
    <desc>Created with Sketch.</desc>
    <defs></defs>
    <g id="Website" stroke="none" stroke-width="1" fill="none" fill-rule="evenodd">
        <g id="Join_us--Desktop-1170px" transform="translate(-248.000000, -1818.000000)">
            <g id="//Content">
                <g id="Things-we-value-in-people" transform="translate(0.000000, 1605.000000)">
                    <g id="Focus" transform="translate(248.000000, 213.000000)">
                        <g id="Icon_Joinus_Focus-driven_work">
                            <path d="M13.0000155,6.6071257 L13.0000155,13.1071334 C13.0000155,13.3682945 12.7968903,13.5714197 12.5357292,13.5714197 L7.89286655,13.5714197 C7.63170553,13.5714197 7.42858028,13.3682945 7.42858028,13.1071334 L7.42858028,12.1785609 C7.42858028,11.9173999 7.63170553,11.7142746 7.89286655,11.7142746 L11.1428704,11.7142746 L11.1428704,6.6071257 C11.1428704,6.34596467 11.3459957,6.14283943 11.6071567,6.14283943 L12.5357292,6.14283943 C12.7968903,6.14283943 13.0000155,6.34596467 13.0000155,6.6071257 Z M19.035737,11.7142746 C19.035737,7.36159088 15.4955542,3.82140809 11.1428704,3.82140809 C6.79018667,3.82140809 3.25000387,7.36159088 3.25000387,11.7142746 C3.25000387,16.0669584 6.79018667,19.6071412 11.1428704,19.6071412 C15.4955542,19.6071412 19.035737,16.0669584 19.035737,11.7142746 Z M22.2857409,11.7142746 C22.2857409,17.8660677 17.2946635,22.8571451 11.1428704,22.8571451 C4.99107738,22.8571451 0,17.8660677 0,11.7142746 C0,5.5624816 4.99107738,0.571404219 11.1428704,0.571404219 C17.2946635,0.571404219 22.2857409,5.5624816 22.2857409,11.7142746 Z" id="clock-o---FontAwesome" fill="#A781FF"></path>
                            <circle id="Oval" fill="#FFFFFF" cx="19.5" cy="19.5" r="6.5"></circle>
                            <path d="M25.5892995,23.0892834 C25.5892995,22.8660689 25.5000137,22.6428543 25.3392992,22.4821399 L22.7142961,19.8571367 L25.3392992,17.2321336 C25.5000137,17.0714191 25.5892995,16.8482046 25.5892995,16.62499 C25.5892995,16.4017755 25.5000137,16.1785609 25.3392992,16.0178464 L24.1250121,14.8035593 C23.9642976,14.6428448 23.741083,14.553559 23.5178685,14.553559 C23.2946539,14.553559 23.0714394,14.6428448 22.9107249,14.8035593 L20.2857218,17.4285624 L17.6607186,14.8035593 C17.5000042,14.6428448 17.2767896,14.553559 17.0535751,14.553559 C16.8303605,14.553559 16.607146,14.6428448 16.4464315,14.8035593 L15.2321443,16.0178464 C15.0714298,16.1785609 14.982144,16.4017755 14.982144,16.62499 C14.982144,16.8482046 15.0714298,17.0714191 15.2321443,17.2321336 L17.8571475,19.8571367 L15.2321443,22.4821399 C15.0714298,22.6428543 14.982144,22.8660689 14.982144,23.0892834 C14.982144,23.312498 15.0714298,23.5357125 15.2321443,23.696427 L16.4464315,24.9107142 C16.607146,25.0714287 16.8303605,25.1607145 17.0535751,25.1607145 C17.2767896,25.1607145 17.5000042,25.0714287 17.6607186,24.9107142 L20.2857218,22.2857111 L22.9107249,24.9107142 C23.0714394,25.0714287 23.2946539,25.1607145 23.5178685,25.1607145 C23.741083,25.1607145 23.9642976,25.0714287 24.1250121,24.9107142 L25.3392992,23.696427 C25.5000137,23.5357125 25.5892995,23.312498 25.5892995,23.0892834 Z" id="Times---FontAwesome" fill="#A781FF"></path>
                        </g>
                    </g>
                </g>
            </g>
        </g>
    </g>
</svg>

<svg width="26" height="26" viewBox="0 0 26 26" xmlns="http://www.w3.org/2000/svg"><title>Icon_Joinus_Focus-driven_work@1x</title><g fill="none" fill-rule="evenodd"><path d="M13 6.607v6.5a.458.458 0 0 1-.464.464H7.893a.458.458 0 0 1-.464-.464v-.928c0-.262.203-.465.464-.465h3.25V6.607c0-.261.203-.464.464-.464h.929c.26 0 .464.203.464.464zm6.036 5.107c0-4.352-3.54-7.893-7.893-7.893S3.25 7.361 3.25 11.714s3.54 7.893 7.893 7.893 7.893-3.54 7.893-7.893zm3.25 0c0 6.152-4.991 11.143-11.143 11.143C4.99 22.857 0 17.867 0 11.714 0 5.562 4.991.571 11.143.571c6.152 0 11.143 4.991 11.143 11.143z" fill="#A781FF"/><circle fill="#FFF" cx="19.5" cy="19.5" r="6.5"/><path d="M25.59 23.09a.866.866 0 0 0-.25-.608l-2.626-2.625 2.625-2.625a.866.866 0 0 0 0-1.214l-1.214-1.214a.866.866 0 0 0-1.214 0l-2.625 2.625-2.625-2.625a.866.866 0 0 0-1.215 0l-1.214 1.214a.866.866 0 0 0 0 1.214l2.625 2.625-2.625 2.625a.866.866 0 0 0 0 1.214l1.214 1.215a.866.866 0 0 0 1.215 0l2.625-2.625 2.625 2.625a.866.866 0 0 0 1.214 0l1.214-1.215a.863.863 0 0 0 .25-.607z" fill="#A781FF"/></g></svg>
